icons/lines/status-up.svg

<svg xmlns="http://www.w3.org/2000/svg" width="24" height="24" viewBox="0 0 24 24" fill="none" stroke="currentColor" stroke-width="2" stroke-linecap="round" stroke-linejoin="round" >
  <path d="M6.87988 18.15V16.08"/>
  <path d="M12 18.15V14.01"/>
  <path d="M17.1201 18.15V11.93"/>
  <path d="M17.1199 5.85L16.6599 6.39C14.1099 9.37 10.6899 11.48 6.87988 12.43"/>
  <path d="M14.1904 5.85H17.1204V8.77"/>
  <path d="M9 22H15C20 22 22 20 22 15V9C22 4 20 2 15 2H9C4 2 2 4 2 9V15C2 20 4 22 9 22Z"/>
  </svg>

<svg xmlns="http://www.w3.org/2000/svg" width="24" height="24" viewBox="0 0 24 24" fill="none" stroke="currentColor" stroke-width="2" stroke-linecap="round" stroke-linejoin="round">
  <path d="M12 18.15v-4.14" />
  <path d="M14.19 5.85h2.93v2.92" />
  <path d="M15 22c5 0 7-2 7-7V9c0-5-2-7-7-7H9C4 2 2 4 2 9v6c0 5 2 7 7 7z" />
  <path d="M17.12 18.15v-6.22" />
  <path d="m17.12 5.85-.46.54a18.9 18.9 0 0 1-9.78 6.04" />
  <path d="M6.88 18.15v-2.07" />
</svg>
